X:157
T: SAMMELT EUCH IN TRAUTE REIHN
N: F0289
O: Europa, Mitteleuropa, Deutschland
R: Jugend - Lied, patriotisch, Neujahr
M: 3/8
L: 1/8
K: C
 | CEC | G,2G, | CEC | G,2z |
C2G, | A,2D | B,A,B, | C2z |
D2D | E2C | B,2C | DB,G, |
D^CD | E2C | B,2C | DB,G, |
C2C | E2E | A,2C | F3 |
FED | C2C | CDB, | C2z

@@@ Tune index: 5588
